landing/img/bunny-hope.svg

<svg version="1.1" id="Слой_1" xmlns="http://www.w3.org/2000/svg" x="0" y="0" viewBox="0 0 172 172" xml:space="preserve"><style>.st1{fill:#01a89e}</style><path d="M-.8-.2l172 .4-.4 172-172-.4.4-172z" fill="none"/><path class="st1" d="M145.8 136.3c0-18.3-26.1-32.3-60.8-32.4-23.6 0-43.4 6.4-53.4 16.4l11.8 8.6c7.2-5.7 21.9-10.7 41.9-10.7 28.3.1 46.6 10.8 46.5 18 0 7.2-18.3 17.9-46.6 17.8-3.9 0-7.2 3.2-7.2 7.2 0 3.9 3.2 7.2 7.2 7.2 34.4.1 60.6-13.8 60.6-32.1z"/><path class="st1" d="M24 111c0-18.3 26.2-32.2 61-32.1s60.9 14.1 60.8 32.4-26.2 32.2-61 32.1C50.1 143.3 24 129.2 24 111zm107.5.2c0-7.2-18.2-18-46.5-18S38.4 103.8 38.4 111s18.2 18 46.5 18c28.3.1 46.6-10.7 46.6-17.8z"/><path class="st1" d="M24.1 85.9c0-18.3 26.2-32.2 61-32.1s60.9 14.1 60.8 32.4c0 18.3-26.2 32.2-61 32.1S24 104.1 24.1 85.9zm107.5.2c0-7.2-18.2-18-46.5-18S38.4 78.7 38.4 85.9c0 7.2 18.2 18 46.5 18s46.7-10.6 46.7-17.8z"/><path class="st1" d="M24.1 60.8c0-18.3 26.2-32.2 61-32.1S146 42.8 146 61c0 18.3-26.2 32.2-61 32.1s-60.9-14-60.9-32.3zm107.5.2c0-7.2-18.2-18-46.5-18-28.3-.1-46.6 10.7-46.6 17.8s18.2 18 46.5 18 46.6-10.6 46.6-17.8z"/><path class="st1" d="M24.2 35.7c0-18.3 26.2-32.2 61-32.1 34.7.1 60.9 14.1 60.8 32.4 0 18.3-26.2 32.2-61 32.1S24.1 54 24.2 35.7zm107.5.2c0-7.2-18.2-18-46.5-18-28.3-.1-46.6 10.7-46.6 17.8s18.2 18 46.5 18c28.3.1 46.6-10.6 46.6-17.8z"/><path d="M141.3 73.6c1.8 2.2 2.9 4.3 3.6 6.8-4.4 4.6-10.1 8.6-16.9 11.8 2.2-2.1 3.6-4.3 3.6-6.1 0-1.1-.4-2.2-1.1-3.2 4.7-2.9 8.3-5.7 10.8-9.3zM39.5 82.7c-4.7-2.5-8.2-5.8-10.7-9.3-1.8 2.1-2.9 4.3-3.6 6.8 4.3 4.7 10 8.6 16.8 11.9-2.1-2.2-3.6-4.3-3.6-6.1 0-1.2.4-2.2 1.1-3.3zm-.1 25.1c-4.7-2.5-8.2-5.8-10.7-9.3-1.8 2.1-2.9 4.3-3.6 6.8 4.3 4.7 10 8.6 16.8 11.9-2.1-2.2-3.6-4.3-3.6-6.1.1-1.2.4-2.3 1.1-3.3zm6.6-47c-2.2 1.1-4.3 2.1-6.5 3.2 2.1 3.2 6.8 6.5 13.6 9.3C61 70.1 72.1 68 85 68c-15 .1-28.6-2.5-39-7.2zm-.1 25.1c-2.2 1.1-4.3 2.1-6.5 3.2 2.1 3.2 6.8 6.5 13.6 9.3 7.9-3.2 18.6-5.3 31.9-5.3-15.3 0-28.6-2.5-39-7.2zm84.7-21.7c-2.1-1.1-4.3-2.2-6.4-3.2-10.4 4.6-24 7.1-39.1 7.1 12.9 0 24 2.2 31.9 5.4 6.7-2.8 11.4-6 13.6-9.3zm0-6.4c.7 1.1 1.1 2.2 1.1 3.2 0 1.8-1.4 3.9-3.6 6.1 7.2-3.2 12.9-7.1 16.9-11.8-.7-2.5-2.1-4.7-3.6-6.8-2.6 3.6-6.2 6.4-10.8 9.3zm-91-.2c-4.7-2.5-8.2-5.8-10.7-9.3-1.8 2.1-2.9 4.3-3.6 6.8 4.3 4.7 10 8.6 16.8 11.9-2.1-2.2-3.6-4.3-3.6-6.1 0-1.2.3-2.2 1.1-3.3zM85.1 43c12.9 0 24 2.2 31.9 5.4 6.8-2.9 11.5-6.1 13.6-9.3-11.1-6.5-26.9-10.4-45.5-10.5S50.7 32.5 39.6 39c2.1 3.2 6.8 6.5 13.6 9.3 7.9-3.2 19-5.3 31.9-5.3zM85 93.2c12.9 0 24 2.2 31.9 5.4 6.8-2.9 11.5-6.1 13.6-9.3-2.1-1.1-3.9-2.2-6.4-3.2-10.4 4.6-24.1 7.1-39.1 7.1zm45.5 14.8c.7 1.1 1.1 2.2 1.1 3.2 0 1.8-1.4 3.9-3.6 6.1 7.2-3.2 12.9-7.1 16.9-11.8-.7-2.5-2.1-4.7-3.6-6.8-2.6 3.5-6.2 6.4-10.8 9.3zm-45.6 10.2c12.9 0 24 2.2 31.9 5.4 6.8-2.9 11.5-6.1 13.6-9.3-2.1-1.1-3.9-2.2-6.4-3.2-10.4 4.7-24 7.2-39.1 7.1zm45.5 14.8c.7 1.1 1.1 2.2 1.1 3.2 0 1.8-1.4 3.9-3.6 6.1 7.2-3.2 12.9-7.1 16.9-11.8-.7-2.5-2.1-4.7-3.6-6.8-2.5 3.6-6.1 6.5-10.8 9.3zm-45.5-14.8c-15 0-28.7-2.6-39-7.2-2.2 1.1-4.3 2.1-6.5 3.2 2.1 3.2 6.8 6.5 13.6 9.3 7.9-3.1 19-5.3 31.9-5.3z" fill="#01766e"/></svg>

<?xml version="1.0" encoding="utf-8"?>
<!-- Generator: Adobe Illustrator 24.0.1, SVG Export Plug-In . SVG Version: 6.00 Build 0)  -->
<svg version="1.1" id="Слой_1" xmlns="http://www.w3.org/2000/svg" xmlns:xlink="http://www.w3.org/1999/xlink" x="0px" y="0px"
	 viewBox="0 0 172 172" style="enable-background:new 0 0 172 172;" xml:space="preserve">
<style type="text/css">
	.st0{fill:none;}
	.st1{fill:#01A89E;}
	.st2{fill:#01766E;}
</style>
<g>
	<path class="st0" d="M-0.8-0.2l172,0.4l-0.4,172l-172-0.4L-0.8-0.2z"/>
	<g>
		<path class="st1" d="M145.8,136.3c0-18.3-26.1-32.3-60.8-32.4c-23.6,0-43.4,6.4-53.4,16.4l11.8,8.6c7.2-5.7,21.9-10.7,41.9-10.7
			c28.3,0.1,46.6,10.8,46.5,18c0,7.2-18.3,17.9-46.6,17.8c-3.9,0-7.2,3.2-7.2,7.2c0,3.9,3.2,7.2,7.2,7.2
			C119.6,168.5,145.8,154.6,145.8,136.3L145.8,136.3z"/>
		<path class="st1" d="M24,111c0-18.3,26.2-32.2,61-32.1s60.9,14.1,60.8,32.4s-26.2,32.2-61,32.1C50.1,143.3,24,129.2,24,111z
			 M131.5,111.2c0-7.2-18.2-18-46.5-18S38.4,103.8,38.4,111s18.2,18,46.5,18C113.2,129.1,131.5,118.3,131.5,111.2z"/>
		<path class="st1" d="M24.1,85.9c0-18.3,26.2-32.2,61-32.1s60.9,14.1,60.8,32.4c0,18.3-26.2,32.2-61,32.1S24,104.1,24.1,85.9z
			 M131.6,86.1c0-7.2-18.2-18-46.5-18S38.4,78.7,38.4,85.9c0,7.2,18.2,18,46.5,18S131.6,93.3,131.6,86.1z"/>
		<path class="st1" d="M24.1,60.8c0-18.3,26.2-32.2,61-32.1S146,42.8,146,61c0,18.3-26.2,32.2-61,32.1S24.1,79.1,24.1,60.8z
			 M131.6,61c0-7.2-18.2-18-46.5-18c-28.3-0.1-46.6,10.7-46.6,17.8s18.2,18,46.5,18S131.6,68.2,131.6,61z"/>
		<path class="st1" d="M24.2,35.7c0-18.3,26.2-32.2,61-32.1C119.9,3.7,146.1,17.7,146,36c0,18.3-26.2,32.2-61,32.1
			S24.1,54,24.2,35.7z M131.7,35.9c0-7.2-18.2-18-46.5-18c-28.3-0.1-46.6,10.7-46.6,17.8s18.2,18,46.5,18
			C113.4,53.8,131.7,43.1,131.7,35.9z"/>
		<path class="st2" d="M141.3,73.6c1.8,2.2,2.9,4.3,3.6,6.8C140.5,85,134.8,89,128,92.2c2.2-2.1,3.6-4.3,3.6-6.1
			c0-1.1-0.4-2.2-1.1-3.2C135.2,80,138.8,77.2,141.3,73.6L141.3,73.6z M39.5,82.7c-4.7-2.5-8.2-5.8-10.7-9.3
			c-1.8,2.1-2.9,4.3-3.6,6.8c4.3,4.7,10,8.6,16.8,11.9c-2.1-2.2-3.6-4.3-3.6-6.1C38.4,84.8,38.8,83.8,39.5,82.7L39.5,82.7z
			 M39.4,107.8c-4.7-2.5-8.2-5.8-10.7-9.3c-1.8,2.1-2.9,4.3-3.6,6.8c4.3,4.7,10,8.6,16.8,11.9c-2.1-2.2-3.6-4.3-3.6-6.1
			C38.4,109.9,38.7,108.8,39.4,107.8L39.4,107.8z M46,60.8c-2.2,1.1-4.3,2.1-6.5,3.2c2.1,3.2,6.8,6.5,13.6,9.3
			c7.9-3.2,19-5.3,31.9-5.3C70,68.1,56.4,65.5,46,60.8z M45.9,85.9c-2.2,1.1-4.3,2.1-6.5,3.2c2.1,3.2,6.8,6.5,13.6,9.3
			c7.9-3.2,18.6-5.3,31.9-5.3C69.6,93.1,56.3,90.6,45.9,85.9z M130.6,64.2c-2.1-1.1-4.3-2.2-6.4-3.2c-10.4,4.6-24,7.1-39.1,7.1
			c12.9,0,24,2.2,31.9,5.4C123.7,70.7,128.4,67.5,130.6,64.2z M130.6,57.8c0.7,1.1,1.1,2.2,1.1,3.2c0,1.8-1.4,3.9-3.6,6.1
			c7.2-3.2,12.9-7.1,16.9-11.8c-0.7-2.5-2.1-4.7-3.6-6.8C138.8,52.1,135.2,54.9,130.6,57.8L130.6,57.8z M39.6,57.6
			c-4.7-2.5-8.2-5.8-10.7-9.3c-1.8,2.1-2.9,4.3-3.6,6.8c4.3,4.7,10,8.6,16.8,11.9c-2.1-2.2-3.6-4.3-3.6-6.1
			C38.5,59.7,38.8,58.7,39.6,57.6L39.6,57.6z M85.1,43c12.9,0,24,2.2,31.9,5.4c6.8-2.9,11.5-6.1,13.6-9.3
			c-11.1-6.5-26.9-10.4-45.5-10.5S50.7,32.5,39.6,39c2.1,3.2,6.8,6.5,13.6,9.3C61.1,45.1,72.2,43,85.1,43z M85,93.2
			c12.9,0,24,2.2,31.9,5.4c6.8-2.9,11.5-6.1,13.6-9.3c-2.1-1.1-3.9-2.2-6.4-3.2C113.7,90.7,100,93.2,85,93.2z M130.5,108
			c0.7,1.1,1.1,2.2,1.1,3.2c0,1.8-1.4,3.9-3.6,6.1c7.2-3.2,12.9-7.1,16.9-11.8c-0.7-2.5-2.1-4.7-3.6-6.8
			C138.7,102.2,135.1,105.1,130.5,108L130.5,108z M84.9,118.2c12.9,0,24,2.2,31.9,5.4c6.8-2.9,11.5-6.1,13.6-9.3
			c-2.1-1.1-3.9-2.2-6.4-3.2C113.6,115.8,100,118.3,84.9,118.2z M130.4,133c0.7,1.1,1.1,2.2,1.1,3.2c0,1.8-1.4,3.9-3.6,6.1
			c7.2-3.2,12.9-7.1,16.9-11.8c-0.7-2.5-2.1-4.7-3.6-6.8C138.7,127.3,135.1,130.2,130.4,133L130.4,133z M84.9,118.2
			c-15,0-28.7-2.6-39-7.2c-2.2,1.1-4.3,2.1-6.5,3.2c2.1,3.2,6.8,6.5,13.6,9.3C60.9,120.4,72,118.2,84.9,118.2z"/>
	</g>
</g>
</svg>
